images/icons/user.svg

<svg width="37" height="35" viewBox="0 0 37 35" fill="none" xmlns="http://www.w3.org/2000/svg">
<path d="M31.5815 22.6256C29.5665 20.7196 27.1682 19.3086 24.5515 18.4544C27.3541 16.6285 29.1953 13.5726 29.1953 10.1172C29.1953 4.53858 24.3974 0 18.5 0C12.6026 0 7.80469 4.53858 7.80469 10.1172C7.80469 13.5726 9.64594 16.6285 12.4486 18.4544C9.83188 19.3086 7.43353 20.7196 5.41855 22.6256C1.92436 25.931 0 30.3256 0 35H2.89062C2.89062 26.8582 9.89295 20.2344 18.5 20.2344C27.1071 20.2344 34.1094 26.8582 34.1094 35H37C37 30.3256 35.0756 25.931 31.5815 22.6256ZM18.5 17.5C14.1965 17.5 10.6953 14.1881 10.6953 10.1172C10.6953 6.04625 14.1965 2.73438 18.5 2.73438C22.8035 2.73438 26.3047 6.04625 26.3047 10.1172C26.3047 14.1881 22.8035 17.5 18.5 17.5Z" fill="black"/>
</svg>

<svg width="37" height="35" fill="none" xmlns="http://www.w3.org/2000/svg"><path d="M31.581 22.626a18.61 18.61 0 0 0-7.03-4.172c2.803-1.826 4.644-4.881 4.644-8.337C29.195 4.54 24.397 0 18.5 0S7.805 4.539 7.805 10.117c0 3.456 1.84 6.511 4.644 8.337a18.61 18.61 0 0 0-7.03 4.172C1.924 25.93 0 30.326 0 35h2.89c0-8.142 7.003-14.766 15.61-14.766S34.11 26.858 34.11 35H37c0-4.674-1.924-9.069-5.419-12.374zM18.5 17.5c-4.303 0-7.805-3.312-7.805-7.383 0-4.07 3.502-7.383 7.805-7.383s7.805 3.312 7.805 7.383S22.803 17.5 18.5 17.5z" fill="#000"/></svg>
